X:85
T:Tinker's Daughter, The
T:Broderick's
R:reel
C:Vincent Broderick (1920-2008)
H:The 2nd ending for the 2nd part was added later.
H:Second part is very similar to second part of "The Green Mountain", #126
Z:id:hn-reel-85
M:C|
K:D
A2FA DAFA|f2df efdB|A2FA DAFA|B2dB BAFB|
A2FA DAFA|~f3d efde|fa~a2 bfaf|1 e2de fedB:|2 e2de fdde||
|:fa~a2 bfaf|defd e2de|f2df efdB|Adfd edBd|
[1 fa~a2 bfaf|defd e2de|f2df efdB|AFEF D3e:|
[2 A2FA DAFA|~f3d efde|fa~a2 bfaf|e2de fedB||
P:variations
|:A2FA DAFA|f2fd efdB|A2FA DAFA|BddB BAFB|
A2FA DAFA|~f3d efd2|fa~a2 bfaf|efde fdd2:|
|:fa~a2 bafe|dfaf efde|f2df efde|1 f2df efd2| 
fa~a2 bafe|dfaf efde|f2df efdB|AFEA FDD2:|2 f2df efdB|
A2FA DAFA|~f3d efde|fa~a2 bfaf|efde fdd2||
<end>
<start>
